main/svg/beetroots2.svg

<svg xmlns="http://www.w3.org/2000/svg" width="32" height="32"><path d="M5 24v2.004L2.996 24H1.004l4 3.996V32h2.004v-4.004L10.996 24H9l-2 2.004V24Zm10 0v2.004L12.996 24h-2l4.008 3.996V32h2v-4.004L21 24h-2l-2.004 2.004V24Zm10 0v2.004L22.996 24H21l4 3.996V32h2v-4.004L31 24h-2.004L27 26.004V24Zm0 0" style="stroke:none;fill-rule:nonzero;fill:#000;fill-opacity:1"/></svg>

<svg xmlns="http://www.w3.org/2000/svg" width="32" height="32"><path d="M5 24v2l-2-2H1l4 4v4h2v-4l4-4H9l-2 2v-2Zm10 0v2l-2-2h-2l4 4v4h2v-4l4-4h-2l-2 2v-2Zm10 0v2l-2-2h-2l4 4v4h2v-4l4-4h-2l-2 2v-2Zm0 0" style="stroke:none;fill-rule:nonzero;fill:#000;fill-opacity:1"/></svg>
